X:045
T:Dinny Mescall's Slide 
B:CRE3.044 (SleamhnÃÂÃÂÃÂÃÂ¥n DhinnÃÂÃÂÃÂÃÂ­ UÃÂÃÂÃÂÃÂ­ Mheiscill)
F:file ID: cre.3/045dinn_m
R:slide
Q:180
M:12/8
L:1/8
K:G
A|B2B BAB dBA G2D|GDG g2e dBG G2G|
B2B BAB dBA G2D|Bdd B2A G3 G2:|
B/c/|:g3 gfe dcB c2d|eaa a2b a2g e2f|
g3 gfe dcB c2d|1 efg faf g3 g2d:|
[2 efg faf g3 b2||

%%%

